X: 34
M: 2/4
L: 1/16
K: D
d4 e4 | (fgfg a2).g2 |\
f4 {a}g2fe | dcde d2A2 |\
d4 e4 | (fgfg a2).g2 |\
f4 {a}g2fe | d6 :|
|: d2 |\
f2fg f2e2 | d2de d2A2 |\
f2fg f2e2 | d2de d2A2 |\


